X:WFS 13-12 37
T:Lemmy Brazil's
M:4/4
K:D
[P:A] AG| F2A2{d} B2A2 defd B2AG FAdA Bcdf |1 e2e2 e2 :|2 e2c2 d2 ||
[P:B] fg| afdf afd2 defd B2AG FAdA Bcdf |1 e2e2 e2 :|2 e2c2 d2 |]

